public/assets/images/Sponsors/Polygon.svg

<svg width="291" height="64" viewBox="0 0 291 64" fill="none" xmlns="http://www.w3.org/2000/svg">
<path d="M113.634 20.3557C115.417 21.4342 116.925 22.9171 117.884 24.9393C118.98 26.9615 119.529 29.3882 119.529 32.0844C119.529 34.7807 118.98 37.0725 117.747 39.0947C116.651 41.1169 115.005 42.5998 112.949 43.5435C110.893 44.622 108.426 45.1613 105.821 45.1613C104.313 45.1613 102.943 44.8916 101.572 44.3524C100.201 43.9479 98.9677 43.1391 98.0081 42.1954V56.2159H90.0578V19.2772H96.9116L97.5969 22.2431C100.612 19.8164 103.902 18.6031 107.329 18.6031C109.66 18.6031 111.853 19.1424 113.634 20.3557ZM109.248 37.0725C110.619 35.8592 111.305 34.2414 111.305 32.2192C111.305 30.197 110.619 28.5793 109.386 27.2311C108.151 25.883 106.507 25.3438 104.725 25.3438C103.217 25.3438 101.846 25.6134 100.75 26.2875C99.653 26.8267 98.8305 27.7703 98.1452 28.9837V35.0502C98.5564 36.2636 99.3789 37.2072 100.338 37.8814C101.435 38.5554 102.669 38.9599 104.176 38.9599C106.233 38.9599 107.877 38.2858 109.248 37.0725Z" fill="#061024"/>
<path d="M124.189 25.0711C125.423 23.1837 127.068 21.566 129.261 20.4875C131.454 19.409 133.921 18.7349 136.663 18.7349C139.405 18.7349 141.872 19.2741 144.065 20.4875C146.122 21.566 147.766 23.1837 148.999 25.2059C150.234 27.228 150.782 29.3851 150.782 31.9466C150.782 34.5079 150.234 36.665 148.999 38.6871C147.766 40.7093 146.258 42.3271 144.065 43.4056C142.009 44.4842 139.405 45.1582 136.663 45.1582C133.921 45.1582 131.454 44.619 129.261 43.5405C127.068 42.462 125.423 40.979 124.189 38.9568C123.092 36.9346 122.407 34.6428 122.407 31.9466C122.407 29.3851 123.092 27.0933 124.189 25.0711ZM132.276 36.7998C133.373 38.1479 134.881 38.6871 136.663 38.6871C138.445 38.6871 139.953 38.0131 141.05 36.7998C142.146 35.5864 142.694 33.8339 142.694 31.9466C142.694 29.9244 142.146 28.3066 141.05 27.0933C139.815 25.7452 138.445 25.0711 136.526 25.0711C134.743 25.0711 133.373 25.7452 132.14 26.9585C131.043 28.3066 130.495 29.9244 130.495 31.9466C130.495 33.8339 131.043 35.4517 132.276 36.7998Z" fill="#061024"/>
<path d="M163.666 0.132294V44.4857H155.716V0.132294H163.666Z" fill="#061024"/>
<path d="M196.29 19.9494L180.115 56.3489H172.439L178.47 43.2721L166.956 19.9494H176.003L182.582 34.5092L189.163 19.9494H196.29Z" fill="#061024"/>
<path d="M226.721 19.9482V44.4841C226.721 46.776 226.035 48.933 224.665 50.8204C223.294 52.7077 221.513 54.1907 219.182 55.2691C216.851 56.3476 214.384 56.8869 211.643 56.8869C209.586 56.8869 207.805 56.6173 206.297 56.2129C204.789 55.6736 203.555 55.1344 202.596 54.5951C201.5 53.9211 200.402 53.1122 199.169 52.0337L203.829 46.6412C204.926 47.7197 206.16 48.5285 207.257 49.0677C208.353 49.607 209.86 50.0115 211.506 50.0115C213.562 50.0115 215.206 49.4722 216.577 48.5285C217.948 47.5848 218.634 46.1019 218.634 44.3493V40.8442C217.811 42.0575 216.715 43.136 215.07 43.9448C213.425 44.7538 211.506 45.1582 209.312 45.1582C207.119 45.1582 204.926 44.619 203.007 43.4056C201.088 42.3271 199.58 40.7093 198.347 38.6871C197.25 36.665 196.564 34.5079 196.564 32.0814C196.564 29.6547 197.113 27.3629 198.347 25.3407C199.58 23.3185 201.088 21.7008 203.145 20.4875C205.063 19.2741 207.119 18.7349 209.312 18.7349C211.369 18.7349 213.151 19.0045 214.796 19.5438C216.441 20.083 217.674 20.8919 218.496 21.8356L219.318 19.9482H226.721ZM218.634 35.0472V28.9807C218.085 27.7674 217.263 26.8237 216.029 26.1496C214.796 25.4755 213.425 25.0711 211.78 25.0711C209.86 25.0711 208.215 25.7452 206.845 26.9585C205.474 28.1718 204.789 29.7895 204.789 31.8117C204.789 33.6991 205.474 35.4517 206.845 36.7998C208.215 38.1479 209.86 38.822 211.78 38.822C214.932 38.6871 217.263 37.4739 218.634 35.0472Z" fill="#061024"/>
<path d="M233.3 25.0741C234.534 23.0519 236.179 21.569 238.372 20.3557C240.565 19.2772 243.033 18.6031 245.774 18.6031C248.515 18.6031 250.982 19.1424 253.175 20.3557C255.232 21.4342 256.877 23.0519 258.111 25.0741C259.207 27.0963 259.892 29.2533 259.892 31.8148C259.892 34.3762 259.344 36.5332 258.111 38.5554C257.014 40.5776 255.37 42.1954 253.175 43.2739C251.12 44.3524 248.515 45.0264 245.774 45.0264C243.033 45.0264 240.565 44.4871 238.372 43.4087C236.179 42.3302 234.534 40.8472 233.3 38.8251C232.066 36.8029 231.518 34.511 231.518 31.68C231.518 29.3882 232.066 27.0963 233.3 25.0741ZM241.25 36.8029C242.347 38.151 243.855 38.6902 245.637 38.6902C247.419 38.6902 248.927 38.0162 250.023 36.8029C251.12 35.5895 251.668 33.837 251.668 31.9495C251.668 29.9274 251.12 28.3096 250.023 27.0963C248.927 25.883 247.419 25.209 245.637 25.209C243.855 25.209 242.484 25.883 241.25 27.0963C240.017 28.3096 239.469 30.0622 239.469 31.9495C239.605 33.837 240.154 35.4547 241.25 36.8029Z" fill="#061024"/>
<path d="M287.994 20.7571C289.638 22.1052 290.323 23.8578 290.461 26.0148V44.4841H282.373V28.9807C282.236 26.554 281.003 25.3407 278.672 25.3407C276.891 25.3407 275.382 26.1496 274.286 27.9022C273.189 29.6547 272.641 31.8117 272.641 34.3732V44.4841H264.69V19.9482H271.955L272.504 23.8578C273.464 22.24 274.697 21.0267 276.342 20.083C277.987 19.1393 279.906 18.7349 282.099 18.7349C284.43 18.7349 286.485 19.409 287.994 20.7571Z" fill="#061024"/>
<path d="M56.0634 19.5456C54.6926 18.7366 52.9106 18.7366 51.4029 19.5456L40.711 25.747L33.4461 29.7913L22.7543 35.9927C21.3836 36.8016 19.6016 36.8016 18.0938 35.9927L9.5952 31.1394C8.22446 30.3305 7.26494 28.8477 7.26494 27.2299V17.6581C7.26494 16.0404 8.08738 14.5574 9.5952 13.7486L17.9567 9.03014C19.3275 8.22127 21.1094 8.22127 22.6173 9.03014L30.9788 13.7486C32.3495 14.5574 33.309 16.0404 33.309 17.6581V23.8595L40.574 19.6804V13.4789C40.574 11.8612 39.7516 10.3783 38.2437 9.5694L22.7543 0.671752C21.3836 -0.137125 19.6016 -0.137125 18.0938 0.671752L2.33026 9.5694C0.822446 10.3783 0 11.8612 0 13.4789V31.4091C0 33.0269 0.822446 34.5097 2.33026 35.3186L18.0938 44.2163C19.4645 45.0252 21.2465 45.0252 22.7543 44.2163L33.4461 38.1497L40.711 33.9705L51.4029 27.904C52.7736 27.095 54.5555 27.095 56.0634 27.904L64.4249 32.6224C65.7956 33.4312 66.7552 34.9142 66.7552 36.5319V46.1037C66.7552 47.7215 65.9327 49.2044 64.4249 50.0132L56.0634 54.8665C54.6926 55.6754 52.9106 55.6754 51.4029 54.8665L43.0413 50.148C41.6706 49.3392 40.711 47.8562 40.711 46.2385V40.0371L33.4461 44.2163V50.4177C33.4461 52.0354 34.2686 53.5184 35.7764 54.3272L51.5399 63.2249C52.9106 64.0338 54.6926 64.0338 56.2004 63.2249L71.964 54.3272C73.3347 53.5184 74.2943 52.0354 74.2943 50.4177V32.4876C74.2943 30.8699 73.4718 29.3869 71.964 28.578L56.0634 19.5456Z" fill="#8247E5"/>
</svg>

<svg xmlns="http://www.w3.org/2000/svg" width="291" height="64" fill="none"><path fill="#061024" d="M113.634 20.356c1.783 1.078 3.291 2.561 4.25 4.583 1.096 2.023 1.645 4.45 1.645 7.145 0 2.697-.549 4.988-1.782 7.01-1.096 2.023-2.742 3.506-4.798 4.45-2.056 1.078-4.523 1.617-7.128 1.617-1.508 0-2.878-.27-4.249-.809-1.371-.404-2.604-1.213-3.564-2.157v14.02h-7.95V19.278h6.854l.685 2.966c3.015-2.427 6.305-3.64 9.732-3.64 2.331 0 4.524.54 6.305 1.753m-4.386 16.716q2.057-1.819 2.057-4.853c0-2.022-.686-3.64-1.919-4.988-1.235-1.348-2.879-1.887-4.661-1.887-1.508 0-2.879.27-3.975.944-1.097.539-1.92 1.482-2.605 2.696v6.066c.411 1.214 1.234 2.157 2.193 2.831a7.1 7.1 0 0 0 3.838 1.079c2.057 0 3.701-.674 5.072-1.888M124.189 25.071c1.234-1.887 2.879-3.505 5.072-4.584s4.66-1.752 7.402-1.752 5.209.54 7.402 1.753c2.057 1.078 3.701 2.696 4.934 4.718 1.235 2.022 1.783 4.18 1.783 6.74 0 2.562-.548 4.719-1.783 6.741-1.233 2.022-2.741 3.64-4.934 4.719-2.056 1.078-4.66 1.752-7.402 1.752q-4.113 0-7.402-1.617c-2.193-1.079-3.838-2.562-5.072-4.584a14.4 14.4 0 0 1-1.782-7.01c0-2.562.685-4.854 1.782-6.876m8.087 11.729c1.097 1.348 2.605 1.887 4.387 1.887s3.29-.674 4.387-1.887 1.644-2.966 1.644-4.853q0-3.034-1.644-4.854c-1.235-1.348-2.605-2.022-4.524-2.022-1.783 0-3.153.674-4.386 1.887-1.097 1.349-1.645 2.966-1.645 4.989 0 1.887.548 3.505 1.781 4.853M163.666.132v44.354h-7.95V.132zM196.29 19.95l-16.175 36.399h-7.676l6.031-13.077-11.514-23.323h9.047l6.579 14.56 6.581-14.56zM226.721 19.948v24.536c0 2.292-.686 4.449-2.056 6.336s-3.152 3.37-5.483 4.45c-2.331 1.078-4.798 1.617-7.539 1.617-2.057 0-3.838-.27-5.346-.674q-2.262-.81-3.701-1.618c-1.096-.674-2.194-1.483-3.427-2.561l4.66-5.393a13.4 13.4 0 0 0 3.428 2.427c1.096.539 2.603.944 4.249.944 2.056 0 3.7-.54 5.071-1.483s2.057-2.427 2.057-4.18v-3.505a8.94 8.94 0 0 1-3.564 3.1q-2.467 1.215-5.758 1.214c-2.193 0-4.386-.539-6.305-1.752-1.919-1.079-3.427-2.697-4.66-4.719-1.097-2.022-1.783-4.18-1.783-6.606s.549-4.718 1.783-6.74 2.741-3.64 4.798-4.853c1.918-1.214 3.974-1.753 6.167-1.753 2.057 0 3.839.27 5.484.809s2.878 1.348 3.7 2.292l.822-1.888zm-8.087 15.1V28.98c-.549-1.214-1.371-2.157-2.605-2.831a8.6 8.6 0 0 0-4.249-1.079c-1.92 0-3.565.674-4.935 1.887q-2.056 1.821-2.056 4.854c0 1.887.685 3.64 2.056 4.988q2.055 2.022 4.935 2.022c3.152-.135 5.483-1.348 6.854-3.775M233.3 25.074c1.234-2.022 2.879-3.505 5.072-4.718 2.193-1.079 4.661-1.753 7.402-1.753s5.208.54 7.401 1.753c2.057 1.078 3.702 2.696 4.936 4.718 1.096 2.022 1.781 4.18 1.781 6.74 0 2.562-.548 4.72-1.781 6.741-1.097 2.023-2.741 3.64-4.936 4.719-2.055 1.078-4.66 1.752-7.401 1.752q-4.112 0-7.402-1.617c-2.193-1.079-3.838-2.562-5.072-4.584s-1.782-4.314-1.782-7.145c0-2.292.548-4.584 1.782-6.606m7.95 11.729c1.097 1.348 2.605 1.887 4.387 1.887s3.29-.674 4.386-1.887 1.645-2.966 1.645-4.853q0-3.034-1.645-4.854c-1.096-1.213-2.604-1.887-4.386-1.887s-3.153.674-4.387 1.887-1.781 2.966-1.781 4.854c.136 1.887.685 3.505 1.781 4.853M287.994 20.757c1.644 1.348 2.329 3.1 2.467 5.258v18.47h-8.088V28.98q-.205-3.64-3.701-3.64c-1.781 0-3.29.809-4.386 2.561q-1.645 2.63-1.645 6.471v10.111h-7.951V19.948h7.265l.549 3.91c.96-1.618 2.193-2.831 3.838-3.775s3.564-1.348 5.757-1.348c2.331 0 4.386.674 5.895 2.022"/><path fill="#8247E5" d="M56.063 19.546c-1.37-.81-3.152-.81-4.66 0L40.71 25.747l-7.265 4.044-10.692 6.202c-1.37.809-3.152.809-4.66 0l-8.499-4.854c-1.37-.808-2.33-2.291-2.33-3.91v-9.57c0-1.619.822-3.102 2.33-3.91l8.362-4.719c1.37-.809 3.152-.809 4.66 0l8.362 4.719c1.37.808 2.33 2.291 2.33 3.91v6.2l7.265-4.179V13.48c0-1.618-.822-3.1-2.33-3.91L22.754.672c-1.37-.81-3.152-.81-4.66 0L2.33 9.569C.822 10.38 0 11.861 0 13.48v17.93c0 1.618.822 3.1 2.33 3.91l15.764 8.897c1.37.81 3.153.81 4.66 0l10.692-6.066 7.265-4.18 10.692-6.066c1.37-.809 3.153-.809 4.66 0l8.362 4.718c1.37.81 2.33 2.292 2.33 3.91v9.572c0 1.617-.822 3.1-2.33 3.91l-8.362 4.852c-1.37.81-3.152.81-4.66 0l-8.362-4.718c-1.37-.809-2.33-2.292-2.33-3.91v-6.2l-7.265 4.178v6.202c0 1.617.823 3.1 2.33 3.91l15.764 8.897c1.37.809 3.153.809 4.66 0l15.764-8.898c1.37-.809 2.33-2.292 2.33-3.91v-17.93c0-1.617-.822-3.1-2.33-3.909z"/></svg>
